X: 1119
T: Scotch Tune.
%R: march
B: Henry Playford "Apollo's Banquet", London 1687 (5th Edition)
F: https://archive.org/details/apollosbanquetco01rugg
Z: 2017 John Chambers <jc:trillian.mit.edu>
M: C|
L: 1/8
K: G
% - - - - - - - - - -
d2 |\
B3c A2d2 | G2A2 B2g2 | e3d (ef)g2 | B6 e2 |\
d3B (dB)A>G | A2cd e3f | g2fe e3d | d6 :|
|: a2 |\
a3b (af)(ed) | g2a2 b2^d2 | e3f f3e | e6(ef/g/) |\
e2(dB) d2(ed) | e2(ef/g/) f2(ed)  | e2(dB) A3G | G6 |]
% - - - - - - - - - -

%%sep 1 1 500
%%sep 1 1 500

